X:1
T:When shall we three meet again - Webbe
T:#
%%score [ 1 2 3 ]
L:1/8
Q:1/4=80
M:4/4
K:Eb
V:1 bass nm="Bass I"
V:2 bass nm="Bass II"
V:3 bass nm="Bass III"
V:1
"^When shall we three meet again""^William Shakespeare\n(1564-1616)""^larghetto""^Samuel Webbe\n(1740-1816)" G,4 C3 D | %1
w: When, when shall|
 E2 C2 G,3 F, |[Q:1/4=40] !fermata!E,4"^allegretto" z4[Q:1/4=80] |[M:4/4] z A,G,B, z CA,F, | %4
w: we three meet a-|gain,|In thun- der, in thun- der,|
 z2 z C (D/E/F/E/ D/C/B,/C/ | D/B,/C/D/ E)E, B,D z2 | C6 C2 | =B,4 z2 z B, | CC, z C A,C z D | %9
w: in thun\- * * * * * * *|* * * * * der, light- ning,|or in|rain, in|thun- der, in thun- der, in|
 (E/D/C/B,/ A,/B,/A,/G,/ F,)F,A,C | (G, B,2) A,[Q:1/4=40] !fermata!G,2 z[Q:1/4=80] G,/F,/ | %11
w: thun\- * * * * * * * * der, light- ning,|or * in rain? When the|
 (E,/F,/) (E,/F,/) (E,/F,/) (G,/A,/) B,4 | z8 | z4 z2"^larghetto"[Q:1/4=72] G,G, | %14
w: hur\- * ly\- * bur\- * lys * done,||That will|
[Q:1/4=72][Q:1/4=72][Q:1/4=72] G,G,CC[Q:1/4=40] !fermata!=B,4[Q:1/4=80] | %15
w: be eer set of sun;|
 z"^allegretto" C,E,G, C4 | D3 D D2 B,2 | =A,2 D2 =B,2 !fermata!z2 || %18
w: Up- on the heath.|There we go to|meet Mac- beth.|
[M:2/2][Q:1/4=80]"^andante"[Q:1/4=80][Q:1/4=80] C2 CC G,2 F,2 | =E,2 D,2 C,2 z C | =A,3 A, G,2 C2 | %21
w: There well per- form our|ma- gic rites, And|raise such ar- ti-|
 C2 _B,2 =A,4 | z =A,A,A, F,3 F, | F,3 D, (=E,G,)CC | =A,2 A,2 G,2 C2 | D2 =B,2 C2 C2 | %26
w: fi- cial sprights|As by the strength of|their il- lu\- * sion Shall|draw him on to|his con- fu- sion,|
 z =A,A,A, F,2 D,2 ||[K:Eb] z2 F,2 G,3 F, | E,2 G,2 C2 C2 | =B,2 B,2 z2 B,2 | %30
w: to his con- fu- sion,|Shall draw him|on to his con-|fu- sion. Well|
 CC=B,B, CC B,/B,/ z/ B,/ | C=B,CD !courtesy!=B,>B,CB, | CC=B,B, CC B,/B,/ z/ B,/ | %33
w: dou- ble, dou- ble, toil and trou- ble, And|make our hell broth boil and bub- ble,|Dou- ble, dou- ble, toil and trou- ble, And|
 C=B,CD !courtesy!=B,>B,CB, |: C/C/C/C/ G,/G,/ z G,>G, C/C/ z/ C/ | CC=B,C B,>B, C/C,/ z :| %36
w: make our hell broth boil and bub- ble,|Dou- ble, dou- ble, dou- ble, toil and trou- ble, And|make our hell broth boil and bub- ble!|
V:2
 E,4 E,3 G, | G,2 (G,F,) E,3 D, | !fermata!C,3 (C,/D,/) (E,/D,/E,/F,/ G,/F,/G,/A,/) | %3
w: When, when shall|we three * meet a-|gain, In * thun\- * * * * * * *|
[M:4/4] (B,C/D/ E)E, z E,A,A, | z B,CA, z F,B,D | z B,G,E, D,B,, z2 | C,E, z2 E,2 F,2 | %7
w: * * * * der, in thun- der,|in thun- der, in thun- der,|in thun- der, light- ning,|light- ning, or in|
 G,2 z G, =B,D z2 | z C (C/B,/A,/G,/ F,/G,/A,/G,/ A,/C/B,/A,/ | G,C z C, (C,/D,/) C,/B,,/) A,,F, | %10
w: rain, in thun- der,|in thun\- * * * * * * * * * * *|* der, in thun\- * der, * light- ning,|
 E,2 D,2 !fermata!E,4 | z4 z2 D,B,, | C,C, (C,/D,/) (E,/C,/) F,4 | z4 z2 D,D, | %14
w: or in rain?|When the|bat- tles lost * and * won.|That will|
 E,D,E,F, !fermata!G,2 D,>D, | E,2 z2 z2 G,2 | ^F,3 F, G,2 G,2 | G,2 ^F,2 G,2 !fermata!z2 || %18
w: be eer set of sun; Where the|place? There,|there we go to|meet Mac- beth.|
[M:2/2] =E,2 E,E, D,2 C,2 | C,3 =B,, C,4 | z2 F,2 (F,=E,) E,2 | F,>F,G,G, F,4 | z F,F,F, D,3 D, | %23
w: There well per- form our|ma- gic rites,|And raise * such|ar- ti- fi- cial sprights|As by the strength of|
 D,3 =B,, (C,=E,)E,G, | F,2 F,2 =E,2 F,2 | F,2 D,2 =E,2 E,2 | z =E,E,E, D,2 D,2 || %27
w: their il- lu\- * sion shall|draw him on to|his con- fu- sion,|to his con- fu- sion,|
[K:Eb] z2 D,2 D,3 D, | C,2 E,2 E,2 C,2 | D,2 D,2 z2 G,2 | E,F,G,D, C,F, G,/G,/ z/ G,/ | %31
w: Shall draw him|on to his con-|fu- sion. Well|dou- ble, dou- ble, toil and trou- ble, And|
 E,F,G,A, G,>G,^F,G, | E,F,G,D, C,F, G,/G,/ z/ G,/ | E,F,G,A, G,>G,^F,G, |: %34
w: make our hell broth boil and bub- ble,|Dou- ble, dou- ble, toil and trou- ble, And|make our hell broth boil and bub- ble,|
 E,/E,/E,/E,/ D,/D,/ z =E,>G, F,/F,/ z/ F,/ | F,^F,G,E, D,>G, E,/C,/ z :| %36
w: Dou- ble, dou- ble, dou ble, toil and trou- ble, And|make our hell broth boil and bub- ble!|
V:3
 C,4 C,3 =B,, | C,2 (E,,F,,) G,,3 G,, | !fermata!A,,4 z4 | %3
w: When, when shall|we three * meet a-|gain,|
[M:4/4] z2 z G,, (A,,/G,,/A,,/B,,/ C,/B,,/C,/D,/ | E,F,/G,/ A,)A,, z B,,B,B,, | %5
w: In thun\- * * * * * * *|* * * * der, in thun- der,|
 z B,,E,G, z B,,E,G, | A,A,, z2 (A,,/B,,/C,/B,,/ A,,)A,, | G,,4 z G,,=B,,D, | z2 z C, F,F,, z F, | %9
w: in thun- der, in thun- der,|light- ning, or * * * * in|rain, in thun- der,|in thun- der, in|
 (E,/F,/E,/D,/ C,/D,/C,/B,,/ A,,/B,,/) (A,,/G,,/) F,,A,, | B,,3 B,, !fermata!E,,4 | z8 | %12
w: thun\- * * * * * * * * * der, * light- ning,|or in rain?||
 z4 z2 F,E, | D,E,D,C, =B,,2 B,,B,, | C,_B,,A,,A,, !fermata!G,,2 G,,>G,, | C,2 z2 z2 E,2 | %16
w: That will|be eer set of sun, That will|be eer set of sun; Where the|place? There,|
 D,3 C, B,,2 G,,2 | D,2 D,2 G,,2 !fermata!z2 ||[M:2/2] C,2 C,C, =B,,2 =A,,2 | G,,2 F,,2 =E,,3 E,, | %20
w: there we go to|meet Mac- beth.|There well per- form our|ma- gic rites, And|
 (F,,G,,) (=A,,=B,,) C,3 C, | D,2 =E,2 F,4 | z F,,F,,F,, _B,,3 B,, | G,,3 G,, C,2 C,=E,, | %24
w: raise * such * ar- ti-|fi- cial sprights|As by the strength of|their il- lu- sion Shall|
 (F,,G,,) (=A,,=B,,) C,2 A,,2 | F,,2 G,,2 C,2 C,2 | z ^C,C,C, D,2 D,2 ||[K:Eb] z2 D,2 =B,,2 G,,2 | %28
w: draw * him * on to|his con- fu- sion,|to his con- fu- sion,|Shall draw him|
 C,3 C, A,,2 A,,2 | G,,2 G,,2 z2 G,,2 | A,,A,,G,,G,, A,,A,, G,,/G,,/ z/ G,,/ | %31
w: on to his con-|fu- sion. Well|dou- ble, dou- ble, toil and trou- ble, And|
 C,D,E,F, G,>G,,A,,G,, | A,,A,,G,,G,, A,,A,, G,,/G,,/ z/ G,,/ | C,D,E,F, G,>G,,A,,G,, |: %34
w: make our hell broth boil and bub- ble,|Dou- ble, dou- ble, toil and trou- ble, And|make our hell broth boil and bub- ble,|
 C,/C,/C,/C,/ =B,,/B,,/ z _B,,>B,, =A,,/A,,/ z/ A,,/ | _A,,>A,,G,,C, G,,>G,, C,/C,/ z :| %36
w: Dou- ble, dou- ble, dou- ble, toil and trou- ble, And|make our hell broth boil and bub- ble!|

